_icons/SVG/273-seedot.svg

<svg xmlns="http://www.w3.org/2000/svg" width="32" height="32"><path fill="#B38658" d="M12.509 25.453l3.058 5.297c.096.167.265.25.433.25v-5.547h-3.491z"/><path fill="#A7794C" d="M19.491 25.453l-3.058 5.297A.495.495 0 0116 31v-5.547h3.491z"/><path fill="#FDEBBB" d="M10.095 31.999c-.6.002-1.169.002-1.72-.002-2.344-.019-3.974-2.408-3.069-4.57.303-.724.733-1.4 1.261-1.928 1.726-1.726 4.243-2.009 5.621-.631.736.736 1.22 2.227 1.248 3.719a3.352 3.352 0 01-3.341 3.412z"/><path fill="#C09265" d="M16 3.333c-6.351 0-12.063 5.729-12.313 12.604-.25 6.9 5.962 12.396 12.313 12.396v-25z"/><path fill="#FAE09F" d="M21.905 31.999c.6.002 1.169.002 1.72-.002 2.344-.019 3.974-2.408 3.069-4.57-.303-.724-.733-1.4-1.261-1.928-1.726-1.726-4.243-2.009-5.621-.631-.736.736-1.22 2.227-1.248 3.719a3.352 3.352 0 003.341 3.412z"/><path fill="#FDEBBB" d="M10.5 11c1.627 0 3.083.779 4.047 2H16v7h-1.453c-.964 1.221-2.42 2-4.047 2-2.895 0-5.25-2.467-5.25-5.5S7.605 11 10.5 11z"/><path fill="#373F3F" d="M10.5 12.5c-2.068 0-3.75 1.794-3.75 4s1.682 4 3.75 4 3.75-1.794 3.75-4-1.682-4-3.75-4zm0 6c-.966 0-1.75-.895-1.75-2s.784-2 1.75-2 1.75.895 1.75 2-.784 2-1.75 2z"/><path fill="#B38658" d="M16 3.333c6.351 0 12.062 5.729 12.312 12.604.251 6.9-5.961 12.396-12.312 12.396v-25z"/><path fill="#9DA5A4" d="M5.626 9.453c2.755 1.811 6.389 2.925 10.374 2.925V2.935c-4.572 0-8.659 2.742-10.374 6.518z"/><path fill="#909997" d="M2.936 10.051l.018-.032c.54-.927 1.837-1.177 2.712-.566 2.568 1.795 6.811 2.924 10.333 2.924V15.5c-4.185 0-9.614-1.128-12.642-3.375-.669-.497-.823-1.375-.421-2.074z"/><path fill="#ABB2B1" d="M6.929 7.32C9.477 8.655 12.634 9.434 16 9.434v-6.5c-3.661.001-6.993 1.738-9.071 4.386z"/><path fill="#FAE09F" d="M21.5 11c-1.627 0-3.083.779-4.047 2H16v7h1.453c.964 1.221 2.42 2 4.047 2 2.895 0 5.25-2.467 5.25-5.5S24.395 11 21.5 11z"/><path fill="#C8CCCB" d="M13.25 1.262c0 .357.262 1.109.578 1.887a11.611 11.611 0 00-4.824 2.137C11.097 6.055 13.501 6.49 16 6.49V0c-1.179 0-2.75.541-2.75 1.262z"/><path fill="#2B3332" d="M21.5 12.5c-2.068 0-3.75 1.794-3.75 4s1.682 4 3.75 4 3.75-1.794 3.75-4-1.682-4-3.75-4zm0 6c-.966 0-1.75-.895-1.75-2s.784-2 1.75-2 1.75.895 1.75 2-.784 2-1.75 2z"/><path fill="#909997" d="M26.374 9.453c-2.755 1.811-6.389 2.925-10.374 2.925V2.935c4.572 0 8.659 2.742 10.374 6.518z"/><path fill="#838C8A" d="M28.642 12.125C25.614 14.372 20.185 15.5 16 15.5v-3.122c3.522 0 7.766-1.129 10.333-2.924.875-.612 2.172-.361 2.712.566l.018.032a1.571 1.571 0 01-.421 2.073z"/><path fill="#9DA5A4" d="M25.071 7.32C22.523 8.655 19.366 9.434 16 9.434v-6.5c3.661.001 6.993 1.738 9.071 4.386z"/><path fill="#ABB2B1" d="M18.172 3.149c.316-.778.578-1.53.578-1.887C18.75.541 17.179 0 16 0v6.49c2.499 0 4.903-.436 6.996-1.205a11.615 11.615 0 00-4.824-2.136z"/></svg>

<?xml version="1.0" encoding="utf-8"?>
<!-- Generator: Adobe Illustrator 23.0.6, SVG Export Plug-In . SVG Version: 6.00 Build 0)  -->
<svg version="1.1" xmlns="http://www.w3.org/2000/svg" xmlns:xlink="http://www.w3.org/1999/xlink" x="0px" y="0px" width="32px"
	 height="32px" viewBox="0 0 32 32" enable-background="new 0 0 32 32" xml:space="preserve">
<g id="labels">
	<g>
	</g>
</g>
<g id="icons">
	<g>
		<path fill="#B38658" d="M12.509,25.453l3.058,5.297C15.663,30.917,15.832,31,16,31v-5.547H12.509z"/>
		<path fill="#A7794C" d="M19.491,25.453l-3.058,5.297C16.337,30.917,16.168,31,16,31v-5.547H19.491z"/>
		<path fill="#FDEBBB" d="M10.095,31.999c-0.6,0.002-1.169,0.002-1.72-0.002c-2.344-0.019-3.974-2.408-3.069-4.57
			c0.303-0.724,0.733-1.4,1.261-1.928c1.726-1.726,4.243-2.009,5.621-0.631c0.736,0.736,1.22,2.227,1.248,3.719
			C13.471,30.456,11.965,31.994,10.095,31.999z"/>
		<path fill="#C09265" d="M16,3.333c-6.351,0-12.063,5.729-12.313,12.604C3.437,22.837,9.649,28.333,16,28.333V3.333z"/>
		<path fill="#FAE09F" d="M21.905,31.999c0.6,0.002,1.169,0.002,1.72-0.002c2.344-0.019,3.974-2.408,3.069-4.57
			c-0.303-0.724-0.733-1.4-1.261-1.928c-1.726-1.726-4.243-2.009-5.621-0.631c-0.736,0.736-1.22,2.227-1.248,3.719
			C18.529,30.456,20.035,31.994,21.905,31.999z"/>
		<path fill="#FDEBBB" d="M10.5,11c1.627,0,3.083,0.779,4.047,2H16v7h-1.453c-0.964,1.221-2.42,2-4.047,2
			c-2.895,0-5.25-2.467-5.25-5.5S7.605,11,10.5,11z"/>
		<path fill="#373F3F" d="M10.5,12.5c-2.068,0-3.75,1.794-3.75,4s1.682,4,3.75,4s3.75-1.794,3.75-4S12.568,12.5,10.5,12.5z
			 M10.5,18.5c-0.966,0-1.75-0.895-1.75-2c0-1.105,0.784-2,1.75-2s1.75,0.895,1.75,2C12.25,17.605,11.466,18.5,10.5,18.5z"/>
		<path fill="#B38658" d="M16,3.333c6.351,0,12.062,5.729,12.312,12.604C28.563,22.837,22.351,28.333,16,28.333V3.333z"/>
		<path fill="#9DA5A4" d="M5.626,9.453c2.755,1.811,6.389,2.925,10.374,2.925V2.935C11.428,2.935,7.341,5.677,5.626,9.453z"/>
		<path fill="#909997" d="M2.936,10.051c0.006-0.011,0.012-0.021,0.018-0.032c0.54-0.927,1.837-1.177,2.712-0.566
			c2.568,1.795,6.811,2.924,10.333,2.924V15.5c-4.185,0-9.614-1.128-12.642-3.375C2.688,11.628,2.534,10.75,2.936,10.051z"/>
		<path fill="#ABB2B1" d="M6.929,7.32C9.477,8.655,12.634,9.434,16,9.434v-6.5C12.339,2.935,9.007,4.672,6.929,7.32z"/>
		<path fill="#FAE09F" d="M21.5,11c-1.627,0-3.083,0.779-4.047,2H16v7h1.453c0.964,1.221,2.42,2,4.047,2
			c2.895,0,5.25-2.467,5.25-5.5S24.395,11,21.5,11z"/>
		<path fill="#C8CCCB" d="M13.25,1.262c0,0.357,0.262,1.109,0.578,1.887c-1.786,0.342-3.441,1.088-4.824,2.137
			C11.097,6.055,13.501,6.49,16,6.49V5.587V2.935V0C14.821,0,13.25,0.541,13.25,1.262z"/>
		<path fill="#2B3332" d="M21.5,12.5c-2.068,0-3.75,1.794-3.75,4s1.682,4,3.75,4s3.75-1.794,3.75-4S23.568,12.5,21.5,12.5z
			 M21.5,18.5c-0.966,0-1.75-0.895-1.75-2c0-1.105,0.784-2,1.75-2s1.75,0.895,1.75,2C23.25,17.605,22.466,18.5,21.5,18.5z"/>
		<path fill="#909997" d="M26.374,9.453c-2.755,1.811-6.389,2.925-10.374,2.925V2.935C20.572,2.935,24.659,5.677,26.374,9.453z"/>
		<path fill="#838C8A" d="M28.642,12.125C25.614,14.372,20.185,15.5,16,15.5v-3.122c3.522,0,7.766-1.129,10.333-2.924
			c0.875-0.612,2.172-0.361,2.712,0.566c0.006,0.011,0.012,0.021,0.018,0.032C29.466,10.75,29.312,11.628,28.642,12.125z"/>
		<path fill="#9DA5A4" d="M25.071,7.32C22.523,8.655,19.366,9.434,16,9.434v-6.5C19.661,2.935,22.993,4.672,25.071,7.32z"/>
		<path fill="#ABB2B1" d="M18.172,3.149c0.316-0.778,0.578-1.53,0.578-1.887C18.75,0.541,17.179,0,16,0v2.935v2.653V6.49
			c2.499,0,4.903-0.436,6.996-1.205C21.612,4.236,19.958,3.491,18.172,3.149z"/>
	</g>
</g>
</svg>
